X: 1
T: le Printemps
C: Andr\'e Brunet
S: Les Frères Brunet CD
F: http://music.gordfisch.net/montrealsession/assets/abc/quebec.abc
M: 4/4
L: 1/8
K: D
|:\
"D"D2FD EDFA | "A7"dfec "D"dBAF | "D"~D2FA defd | "A7"gece "D"fdd2 |
"G"B3d "D"ABAF | "A7"GFEG "D"FDFA | "D"dcdf "A7"edcA | "(G)"Bc"A7"de "D"fdd2 :|
|:\
"Bm"B3B- BcdB | "A"A2EA CAA,A | "Bm"B3B BcdB | "A"c2ec fcec |
"Bm"B2FB BcdB | "A"A2EA CAA,A | "Bm(G)"B3d "D"ABAF | "A7"GFEG "D"FDD2 :|
